X: 21111
M: 2/4
L: 1/16
K: Bb
V: 1 name="4"
~f2 |\
b2f>f f2g2 | g4 c2~f2 | B2B>B B2e2 | e4 A2~d2 |\
~f2 |\
a2a>a a2a2 | c4 =B2B2 | c2d2e2f2 | f4 e2e2 |\
g2g>g g2g2 | B4 A2A2 | B2c2d2e2 | d4 "^D.C."c2 |]
K: Eb
E>G |\


